X:1
T:Title
%%score ( 1 2 ) { ( 3 5 ) | 4 }
L:1/8
Q:1/4=111
M:4/4
K:Eb
V:1 treble nm="Grand Piano, Unnamed-000"
V:2 treble 
V:3 bass nm="Choir Pad, Vater Unser, 88.88.88"
V:5 bass 
V:4 bass 
V:1
 z4 z2 F2 | [EG]2 [CE]2 [=B,D]2 C2 | [EG]2 [EG]2 DE [FB]2 | [EG]2 [CE]2 [CF]2 [DG]2- | %4
 [DG] [EG]2 [DB]- [DB][Ec][Fd][Ge]- | [Ge] [Fd]2 c- [F-c]/F/ [G=B]2 [=Ec]- | %6
 [Ec] [Fc]2 [Fd]- [Fd] [_Gc]2 [=GB]- | [GB]=A-[_GA]=G- G/ z/ [D_G]2 [D=G]- | %8
 [DG]2 [Fc]2 [FB]2 [E=A]2 | z2 G2 z4 | E2 [CG]2 [FA]2 [EG][DF] | [CE]2 [DF]2 [CE]2 [=B,D]2 | C8 |] %13
V:2
 [EG]2 [DG]2 [CE]2 CD | x8 | z4 F2 z2 | x8 | x8 | z2 z E z4 | x8 | z G z2 z4 | x8 | %9
 [DB]2 ED [CG]2 [DF]2 | x8 | x8 | x8 |] %13
V:3
 C2 G,2 G,2 A,2 | C2 z2 G,2 G,2 | F,2 B,2 z2 B,2 | B,2 C2 C2 z2 | z .C3 z A,2 G,- | %5
 G,=A,=B,C- C D2 C- | C =A,2 B,- B,[K:treble] C2 D- | DEDD C[K:bass] .=A,3 | z2 =A,2 z2 C2 | %9
 F,2 E,2 E,2 z2 | G,2 C2 C2 =B,2 | C.B, A,2 G,2 G,F, | =E,8 |] %13
V:4
 C,2 =B,,2 C,2 F,2 | E,F, G,2 G,,2 B,,2 | A,,2 G,A, B,2 D,2 | E,2 A,2 A,,2 G,,2- | %4
 G,, C,2 G,- G, F,2 E,- | E,F,G,A,- A, G,2 C,- | C, .F,3 z =A,2 G,- | G,C,D,E,- E,/ z/ D,2 G,- | %8
 G,2 F,2 D,2 C,2 | B,,2 C,B,, A,,2 B,,2 | E,2 =E,2 F,2 G,2 | A,G, F,2 z2 G,,2 | C,8 |] %13
V:5
 x8 | x8 | x8 | z4 z2 B,2- | B,3 B,- B,4- | B,8- | B,4 z4[K:treble] | z4 z2[K:bass] z B,- | %8
 B,4 B,4- | B,6 B,2- | B,8- | B, z z2 z4 | x8 |] %13

